X: 251
T: Orpheus and Eurydice
%R: reel
Z: 2014 John Chambers <jc:trillian.mit.edu>
B: Preston "Twenty four Country Dances for the Year 1794" p.106 #1
F: http://www.vwml.org/browse/browse-collections-dance-tune-books/browse-prestons1794# 2014-8-10
M: 2/4
L: 1/16
K: A
AB |\
.c2(cd) .B2(Bc) | A2A2A2 Bc | .d2(dB) .c2(cA) | B2B2B2 AB |\
.c2(cd) .B2(Bc) | A2A2 A3a | gbge faf^d | e2e2e2 :|
|: ed |\
c2c2c2 de | f2f2 d3c | B2B2B2 cd | e2e2 c3B |\
A2A2A2^A2 | B2B2B2 dB | G2G2 e2ec | A4 A,2 :|
% - - - - - - - - - - - - - - - - - - - - - - - - -
%%begintext align
%% The 1st & 2d Cu. set & right hands across .|
%%          Left hands back again :|
%%    Lead down the middle & back again :|.
%%           Hands 6 once round :|:
%%endtext
% - - - - - - - - - - - - - - - - - - - - - - - - -

%%sep 1 1 500
%%sep 1 1 500
